img/rs_school_js.svg

<?xml version="1.0" standalone="no"?>
<!DOCTYPE svg PUBLIC "-//W3C//DTD SVG 1.0//EN" "http://www.w3.org/TR/2001/REC-SVG-20010904/DTD/svg10.dtd">
<svg xmlns="http://www.w3.org/2000/svg" xmlns:xlink="http://www.w3.org/1999/xlink" id="body_1" width="143" height="108">

<g transform="matrix(0.2586831 0 0 0.2586831 -0 27.446186)">
    <path d="M285.4 68L311.69998 66.3C 312.3 70.600006 313.4 73.8 315.19998 76.100006C 318.09998 79.700005 322.09998 81.50001 327.4 81.50001C 331.3 81.50001 334.4 80.600006 336.5 78.700005C 338.5 77.200005 339.7 74.8 339.7 72.3C 339.7 69.9 338.6 67.600006 336.7 66.100006C 334.7 64.3 330 62.500008 322.6 60.900005C 310.5 58.200005 301.80002 54.600006 296.7 50.000008C 291.6 45.70001 288.7 39.40001 288.90002 32.70001C 288.90002 28.100008 290.30002 23.500008 292.90002 19.700008C 295.90002 15.400008 300.00003 12.000009 304.90002 10.100008C 310.2 7.800008 317.60004 6.600008 326.90002 6.600008C 338.30002 6.600008 347.00003 8.700008 353.00003 13.000008C 359.00003 17.200008 362.60004 24.000008 363.70004 33.300007L363.70004 33.300007L337.70004 34.800007C 337.00003 30.800007 335.60004 27.900007 333.30005 26.000008C 331.00006 24.100008 328.00006 23.200008 324.10004 23.200008C 320.90002 23.200008 318.50003 23.90001 316.90002 25.200008C 315.40002 26.40001 314.40002 28.200008 314.50003 30.200008C 314.50003 31.700008 315.30002 33.10001 316.50003 34.000008C 317.80002 35.20001 320.90002 36.300007 325.80002 37.300007C 337.90002 39.900005 346.50003 42.500008 351.80002 45.20001C 357.1 47.90001 360.90002 51.20001 363.2 55.100006C 365.6 59.100006 366.80002 63.700005 366.7 68.40001C 366.7 74.00001 365.1 79.600006 361.90002 84.30001C 358.60004 89.20001 354.00003 93.00001 348.60004 95.30001C 342.90002 97.80001 335.70004 99.10001 327.10004 99.10001C 311.90002 99.10001 301.40002 96.20001 295.50003 90.30001C 289.60004 84.40001 286.1 77 285.4 68zM6.3 97.6L6.3 8.2L52.399998 8.2C 60.899998 8.2 67.5 8.9 72 10.4C 76.4 11.799999 80.3 14.7 82.9 18.599998C 85.8 22.899998 87.200005 27.899998 87.1 33.1C 87.4 41.899998 82.9 50.3 75.2 54.699997C 72.2 56.399998 68.899994 57.6 65.5 58.199997C 68 58.899998 70.5 60.1 72.7 61.499996C 74.399994 62.899998 75.799995 64.5 77.1 66.2C 78.6 67.899994 79.9 69.799995 81 71.799995L81 71.799995L94.4 97.7L63 97.7L48.2 70.2C 46.3 66.7 44.7 64.399994 43.2 63.299995C 41.2 61.899994 38.8 61.199997 36.4 61.199997L36.4 61.199997L34 61.199997L34 97.5L6.3 97.5zM34 44.4L45.7 44.4C 48.2 44.2 50.600002 43.800003 53 43.2C 54.8 42.9 56.4 41.9 57.5 40.4C 60.2 36.800003 59.8 31.7 56.5 28.600002C 54.7 27.100002 51.2 26.300003 46.2 26.300003L46.2 26.300003L34 26.300003L34 44.4zM0 174.2L26.3 172.5C 26.9 176.8 28 180 29.8 182.3C 32.6 185.90001 36.7 187.8 42 187.8C 45.9 187.8 49 186.90001 51.1 185C 53.1 183.4 54.3 181.1 54.3 178.6C 54.3 176.20001 53.2 173.90001 51.3 172.40001C 49.3 170.6 44.6 168.8 37.1 167.20001C 24.999998 164.50002 16.3 160.90001 11.199999 156.30002C 6.099999 152.00002 3.1999989 145.70001 3.3999987 139.00002C 3.3999987 134.40001 4.7999988 129.80002 7.3999987 126.000015C 10.399999 121.70001 14.499998 118.30002 19.399998 116.40002C 24.699997 114.10001 32.1 112.90002 41.399998 112.90002C 52.799995 112.90002 61.5 115.000015 67.5 119.30002C 73.5 123.60002 77 130.30002 78.1 139.60002L78.1 139.60002L52.1 141.10002C 51.399998 137.10002 50 134.20003 47.699997 132.30002C 45.499996 130.40002 42.399998 129.50002 38.499996 129.60002C 35.299995 129.60002 32.899998 130.30002 31.299995 131.70003C 29.699995 132.90002 28.799995 134.70003 28.899996 136.70003C 28.899996 138.20003 29.699995 139.60002 30.899996 140.50003C 32.199997 141.70003 35.299995 142.80003 40.199997 143.80003C 52.299995 146.40004 60.899998 149.00003 66.2 151.70003C 71.5 154.40002 75.299995 157.70003 77.6 161.60002C 80 165.60002 81.2 170.20003 81.2 174.80002C 81.2 180.40002 79.5 185.90002 76.399994 190.60002C 73.09999 195.50002 68.49999 199.30002 63.099995 201.60002C 57.399994 204.10002 50.199997 205.40002 41.599995 205.40002C 26.399994 205.40002 15.899994 202.50003 9.999994 196.60002C 4.099994 190.60002 0.79999447 183.20003 -5.722046E-06 174.20003z" stroke="none" fill="#000000" fill-rule="nonzero" />
    <path d="M133 167.2L157.2 174.5C 155.9 180.6 153.2 186.4 149.5 191.5C 146.1 196 141.6 199.5 136.5 201.8C 131.3 204.1 124.7 205.3 116.7 205.3C 107 205.3 99 203.90001 92.899994 201.1C 86.7 198.3 81.399994 193.3 76.899994 186.20001C 72.399994 179.1 70.2 170.00002 70.2 158.90001C 70.2 144.1 74.1 132.70001 82 124.80001C 89.9 116.90001 101 112.90001 115.4 112.90001C 126.700005 112.90001 135.5 115.20001 142 119.70001C 148.4 124.30001 153.2 131.30002 156.4 140.70001L156.4 140.70001L132 146.1C 131.4 144 130.5 141.90001 129.3 140.1C 127.8 138 125.9 136.40001 123.600006 135.20001C 121.3 134.00002 118.700005 133.50002 116.100006 133.50002C 109.8 133.50002 105.00001 136.00002 101.700005 141.10002C 99.200005 144.80002 97.9 150.70003 97.9 158.70003C 97.9 168.60002 99.4 175.40002 102.4 179.10002C 105.4 182.80002 109.6 184.60002 115.1 184.60002C 120.4 184.60002 124.4 183.10002 127.1 180.20003C 129.8 177.10002 131.8 172.80003 133 167.20003L133 167.20003L133 167.2zM189.5 114.399994L217.1 114.399994L217.1 145.7L247.3 145.7L247.3 114.399994L275.1 114.399994L275.1 203.79999L247.3 203.79999L247.3 167.59999L217.1 167.59999L217.1 203.79999L189.5 203.79999L189.5 114.39999z" stroke="none" fill="#000000" fill-rule="nonzero" />
    <path d="M271.3 159.1C 271.3 144.5 275.4 133.1 283.5 125.00001C 291.6 116.90001 303 112.80001 317.5 112.80001C 332.4 112.80001 343.8 116.80001 351.9 124.80001C 360 132.80002 364 144 364 158.4C 364 168.9 362.2 177.4 358.7 184.09999C 355.30002 190.7 350 196.09999 343.5 199.7C 336.8 203.4 328.5 205.3 318.6 205.3C 308.5 205.3 300.2 203.7 293.6 200.5C 286.80002 197.1 281.2 191.8 277.5 185.3C 273.4 178.3 271.3 169.6 271.3 159.1zM298.9 159.20001C 298.9 168.20001 300.6 174.70001 303.9 178.70001C 307.19998 182.6 311.8 184.6 317.6 184.6C 323.5 184.6 328.1 182.70001 331.4 178.8C 334.69998 174.9 336.3 168 336.3 158C 336.3 149.6 334.59998 143.4 331.19998 139.6C 327.8 135.70001 323.19998 133.8 317.4 133.8C 312.3 133.6 307.4 135.8 304 139.7C 300.6 143.59999 298.9 150.09999 298.9 159.2zM392.3 159.1C 392.3 144.5 396.4 133.1 404.5 125.00001C 412.6 116.90001 424 112.80001 438.5 112.80001C 453.4 112.80001 464.9 116.80001 472.9 124.80001C 480.9 132.80002 485 144 485 158.4C 485 168.9 483.2 177.4 479.7 184.09999C 476.30002 190.7 471 196.09999 464.5 199.7C 457.8 203.4 449.5 205.3 439.6 205.3C 429.5 205.3 421.2 203.7 414.6 200.5C 407.80002 197.1 402.2 191.8 398.5 185.3C 394.4 178.3 392.3 169.6 392.3 159.1zM419.9 159.20001C 419.9 168.20001 421.6 174.70001 424.9 178.70001C 428.19998 182.6 432.8 184.6 438.6 184.6C 444.5 184.6 449.1 182.70001 452.4 178.8C 455.69998 174.90001 457.3 168 457.3 158C 457.3 149.6 455.59998 143.4 452.19998 139.6C 448.8 135.70001 444.19998 133.8 438.4 133.8C 433.3 133.6 428.3 135.8 425 139.7C 421.6 143.59999 419.9 150.09999 419.9 159.2z" stroke="none" fill="#000000" fill-rule="nonzero" />
    <path d="M482.1 114.4L509.7 114.4L509.7 181.8L552.8 181.8L552.8 203.8L482 203.8L482 114.4L482.1 114.4z" stroke="none" fill="#000000" fill-rule="nonzero" />
    <path transform="matrix(0.798625 -0.601829 0.601829 0.798625 43.817932 266.71432)"  d="M357.5 67.9C 357.5 39.29165 385.70605 16.100002 420.5 16.100002C 455.29395 16.100002 483.5 39.29165 483.5 67.9C 483.5 96.508354 455.29395 119.7 420.5 119.7C 385.70605 119.7 357.5 96.508354 357.5 67.9" stroke="none" fill="#FFFFFF" fill-rule="nonzero" />
	<g>
        <path transform="matrix(0.798625 -0.601829 0.601829 0.798625 43.605774 267.02625)"  d="M330.9 -14.2L510.7 -14.2L510.7 150.90001L330.9 150.90001L330.9 -14.2z" stroke="none" fill="#FFFFFF" fill-rule="nonzero" />
		<g>
			<g>
                <path transform="matrix(0.798625 -0.601829 0.601829 0.798625 43.817932 266.71432)"  d="M357.5 67.9C 357.5 39.29165 385.70605 16.100002 420.5 16.100002C 455.29395 16.100002 483.5 39.29165 483.5 67.9C 483.5 96.508354 455.29395 119.7 420.5 119.7C 385.70605 119.7 357.5 96.508354 357.5 67.9" stroke="none" fill="#FFFFFF" fill-rule="nonzero" />
				<g>
                    <path transform="matrix(0.7986355 -0.6018151 0.6018151 0.7986355 43.32788 267.09747)"  d="M357.8 17L483.69998 17L483.69998 120.7L357.8 120.7L357.8 17z" stroke="none" fill="#FFFFFF" fill-rule="nonzero" />
					<g>
                        <path transform="matrix(0.798625 -0.601829 0.601829 0.798625 43.817932 266.71432)"  d="M357.5 67.9C 357.5 39.29165 385.70605 16.100002 420.5 16.100002C 455.29395 16.100002 483.5 39.29165 483.5 67.9C 483.5 96.508354 455.29395 119.7 420.5 119.7C 385.70605 119.7 357.5 96.508354 357.5 67.9" stroke="#000000" stroke-width="4" fill="#FFFFFF" fill-rule="nonzero" />
					</g>
                    <path transform="matrix(0.7986355 -0.6018151 0.6018151 0.7986355 43.32788 267.09747)"  d="M357.8 17L483.69998 17L483.69998 120.7L357.8 120.7L357.8 17z" stroke="#000000" stroke-width="4" fill="none" />
                    <path transform="matrix(0.798625 -0.601829 0.601829 0.798625 43.817932 266.71432)"  d="M357.5 67.9C 357.5 39.29165 385.70605 16.100002 420.5 16.100002C 455.29395 16.100002 483.5 39.29165 483.5 67.9C 483.5 96.508354 455.29395 119.7 420.5 119.7C 385.70605 119.7 357.5 96.508354 357.5 67.9" stroke="#000000" stroke-width="4" fill="none" />
                    <path transform="matrix(0.7986355 -0.6018151 0.6018151 0.7986355 43.32788 267.09747)"  d="M357.8 17L483.69998 17L483.69998 120.7L357.8 120.7L357.8 17z" stroke="none" fill="#FFFFFF" fill-rule="nonzero" />
					<g>
                        <path transform="matrix(0.798625 -0.601829 0.601829 0.798625 43.817932 266.71432)"  d="M357.5 67.9C 357.5 39.29165 385.70605 16.100002 420.5 16.100002C 455.29395 16.100002 483.5 39.29165 483.5 67.9C 483.5 96.508354 455.29395 119.7 420.5 119.7C 385.70605 119.7 357.5 96.508354 357.5 67.9" stroke="#000000" stroke-width="4" fill="#FFFFFF" fill-rule="nonzero" />
					</g>
                    <path transform="matrix(0.7986355 -0.6018151 0.6018151 0.7986355 43.32788 267.09747)"  d="M357.8 17L483.69998 17L483.69998 120.7L357.8 120.7L357.8 17z" stroke="#000000" stroke-width="4" fill="none" />
                    <path transform="matrix(0.798625 -0.601829 0.601829 0.798625 43.605774 267.02625)"  d="M330.9 -14.2L510.7 -14.2L510.7 150.90001L330.9 150.90001L330.9 -14.2z" stroke="#000000" stroke-width="4" fill="none" />
				</g>
                <path transform="matrix(0.798625 -0.601829 0.601829 0.798625 43.817932 266.71432)"  d="M357.5 67.9C 357.5 39.29165 385.70605 16.100002 420.5 16.100002C 455.29395 16.100002 483.5 39.29165 483.5 67.9C 483.5 96.508354 455.29395 119.7 420.5 119.7C 385.70605 119.7 357.5 96.508354 357.5 67.9" stroke="#000000" stroke-width="4" fill="none" />
                <path d="M392.4 61.3L402.4 54.3L414.69998 71.8C 416.8 74.600006 418.4 77.600006 419.59998 80.9C 420.3 83.4 420.09998 86.1 419.09998 88.5C 417.8 91.5 415.69998 94 412.89996 95.8C 409.59998 98.100006 406.79996 99.4 404.39996 99.8C 402.09998 100.200005 399.69995 99.8 397.49997 98.8C 395.09998 97.600006 392.99997 95.9 391.39996 93.700005L391.39996 93.700005L399.99997 85.700005C 400.69998 86.8 401.59998 87.8 402.59998 88.600006C 403.3 89.100006 404.09998 89.40001 404.99997 89.40001C 405.69998 89.40001 406.39996 89.100006 406.89996 88.70001C 407.89996 88.10001 408.59998 86.90001 408.49997 85.70001C 408.19998 84.000015 407.49997 82.30001 406.39996 81.000015L406.39996 81.000015L392.39996 61.300014L392.4 61.3zM422.4 72.4L431.5 65.200005C 432.5 66.4 433.8 67.3 435.2 67.8C 437.2 68.4 439.30002 68 441 66.700005C 442.2 65.9 443.2 64.8 443.6 63.400005C 444.2 61.600006 443.2 59.600006 441.4 59.000004C 441.1 58.900005 440.8 58.800003 440.5 58.800003C 439.3 58.700005 437.2 59.200005 434.1 60.500004C 429 62.600002 425 63.400005 422 63.100002C 419.1 62.800003 416.4 61.300003 414.8 58.800003C 413.59998 57.100002 413 55.100002 412.9 53.100002C 412.9 50.800003 413.5 48.500004 414.8 46.600002C 416.69998 43.9 419 41.600002 421.8 39.800003C 426 36.9 429.69998 35.500004 432.9 35.500004C 436.1 35.500004 439.1 37.000004 441.9 40.100002L441.9 40.100002L432.9 47.2C 431.1 44.9 427.69998 44.4 425.4 46.2L425.4 46.2L425.1 46.5C 424.1 47.1 423.4 48 423 49.1C 422.7 49.899998 422.9 50.8 423.4 51.5C 423.8 52 424.4 52.4 425.1 52.4C 425.9 52.5 427.30002 52.100002 429.30002 51.2C 434.30002 49.100002 438.1 47.9 440.7 47.5C 442.90002 47.1 445.2 47.3 447.30002 48.2C 449.2 49 450.80002 50.4 451.90002 52.100002C 453.30002 54.100002 454.10004 56.500004 454.2 59.000004C 454.30002 61.600002 453.6 64.100006 452.2 66.3C 450.40002 69 448.1 71.3 445.40002 73.100006C 439.90002 76.90001 435.40002 78.50001 431.80002 77.90001C 427.90002 77.30001 424.7 75.30001 422.40002 72.40001z" stroke="none" fill="#000000" fill-rule="nonzero" />
			</g>
		</g>
	</g>
</g>
</svg>

<svg id="Layer_1" xmlns="http://www.w3.org/2000/svg" xmlns:xlink="http://www.w3.org/1999/xlink" viewBox="0 0 552.8 205.3"><style>.st0{fill:#fff}.st1{clip-path:url(#SVGID_2_)}.st2{clip-path:url(#SVGID_4_)}.st3{clip-path:url(#SVGID_6_)}.st4{clip-path:url(#SVGID_8_)}.st5{fill:#fff;stroke:#000;stroke-width:4;stroke-miterlimit:10}.st6{clip-path:url(#SVGID_8_)}.st6,.st7{fill:none;stroke:#000;stroke-width:4;stroke-miterlimit:10}.st8,.st9{clip-path:url(#SVGID_10_)}.st9{fill:none;stroke:#000;stroke-width:4;stroke-miterlimit:10}</style><title>rs_school_js</title><path d="M285.4 68l26.3-1.7c.6 4.3 1.7 7.5 3.5 9.8 2.9 3.6 6.9 5.4 12.2 5.4 3.9 0 7-.9 9.1-2.8 2-1.5 3.2-3.9 3.2-6.4 0-2.4-1.1-4.7-3-6.2-2-1.8-6.7-3.6-14.1-5.2-12.1-2.7-20.8-6.3-25.9-10.9-5.1-4.3-8-10.6-7.8-17.3 0-4.6 1.4-9.2 4-13 3-4.3 7.1-7.7 12-9.6 5.3-2.3 12.7-3.5 22-3.5 11.4 0 20.1 2.1 26.1 6.4 6 4.2 9.6 11 10.7 20.3l-26 1.5c-.7-4-2.1-6.9-4.4-8.8s-5.3-2.8-9.2-2.8c-3.2 0-5.6.7-7.2 2-1.5 1.2-2.5 3-2.4 5 0 1.5.8 2.9 2 3.8 1.3 1.2 4.4 2.3 9.3 3.3 12.1 2.6 20.7 5.2 26 7.9 5.3 2.7 9.1 6 11.4 9.9 2.4 4 3.6 8.6 3.5 13.3 0 5.6-1.6 11.2-4.8 15.9-3.3 4.9-7.9 8.7-13.3 11-5.7 2.5-12.9 3.8-21.5 3.8-15.2 0-25.7-2.9-31.6-8.8S286.1 77 285.4 68zM6.3 97.6V8.2h46.1c8.5 0 15.1.7 19.6 2.2 4.4 1.4 8.3 4.3 10.9 8.2 2.9 4.3 4.3 9.3 4.2 14.5.3 8.8-4.2 17.2-11.9 21.6-3 1.7-6.3 2.9-9.7 3.5 2.5.7 5 1.9 7.2 3.3 1.7 1.4 3.1 3 4.4 4.7 1.5 1.7 2.8 3.6 3.9 5.6l13.4 25.9H63L48.2 70.2c-1.9-3.5-3.5-5.8-5-6.9-2-1.4-4.4-2.1-6.8-2.1H34v36.3H6.3zM34 44.4h11.7c2.5-.2 4.9-.6 7.3-1.2 1.8-.3 3.4-1.3 4.5-2.8 2.7-3.6 2.3-8.7-1-11.8-1.8-1.5-5.3-2.3-10.3-2.3H34v18.1zM0 174.2l26.3-1.7c.6 4.3 1.7 7.5 3.5 9.8 2.8 3.6 6.9 5.5 12.2 5.5 3.9 0 7-.9 9.1-2.8 2-1.6 3.2-3.9 3.2-6.4 0-2.4-1.1-4.7-3-6.2-2-1.8-6.7-3.6-14.2-5.2-12.1-2.7-20.8-6.3-25.9-10.9-5.1-4.3-8-10.6-7.8-17.3 0-4.6 1.4-9.2 4-13 3-4.3 7.1-7.7 12-9.6 5.3-2.3 12.7-3.5 22-3.5 11.4 0 20.1 2.1 26.1 6.4s9.5 11 10.6 20.3l-26 1.5c-.7-4-2.1-6.9-4.4-8.8-2.2-1.9-5.3-2.8-9.2-2.7-3.2 0-5.6.7-7.2 2.1-1.6 1.2-2.5 3-2.4 5 0 1.5.8 2.9 2 3.8 1.3 1.2 4.4 2.3 9.3 3.3 12.1 2.6 20.7 5.2 26 7.9 5.3 2.7 9.1 6 11.4 9.9 2.4 4 3.6 8.6 3.6 13.2 0 5.6-1.7 11.1-4.8 15.8-3.3 4.9-7.9 8.7-13.3 11-5.7 2.5-12.9 3.8-21.5 3.8-15.2 0-25.7-2.9-31.6-8.8-5.9-6-9.2-13.4-10-22.4z"/><path d="M133 167.2l24.2 7.3c-1.3 6.1-4 11.9-7.7 17-3.4 4.5-7.9 8-13 10.3-5.2 2.3-11.8 3.5-19.8 3.5-9.7 0-17.7-1.4-23.8-4.2-6.2-2.8-11.5-7.8-16-14.9-4.5-7.1-6.7-16.2-6.7-27.3 0-14.8 3.9-26.2 11.8-34.1s19-11.9 33.4-11.9c11.3 0 20.1 2.3 26.6 6.8 6.4 4.6 11.2 11.6 14.4 21l-24.4 5.4c-.6-2.1-1.5-4.2-2.7-6-1.5-2.1-3.4-3.7-5.7-4.9-2.3-1.2-4.9-1.7-7.5-1.7-6.3 0-11.1 2.5-14.4 7.6-2.5 3.7-3.8 9.6-3.8 17.6 0 9.9 1.5 16.7 4.5 20.4 3 3.7 7.2 5.5 12.7 5.5 5.3 0 9.3-1.5 12-4.4 2.7-3.1 4.7-7.4 5.9-13zm56.5-52.8h27.6v31.3h30.2v-31.3h27.8v89.4h-27.8v-36.2h-30.2v36.2h-27.6v-89.4z"/><path d="M271.3 159.1c0-14.6 4.1-26 12.2-34.1 8.1-8.1 19.5-12.2 34-12.2 14.9 0 26.3 4 34.4 12S364 144 364 158.4c0 10.5-1.8 19-5.3 25.7-3.4 6.6-8.7 12-15.2 15.6-6.7 3.7-15 5.6-24.9 5.6-10.1 0-18.4-1.6-25-4.8-6.8-3.4-12.4-8.7-16.1-15.2-4.1-7-6.2-15.7-6.2-26.2zm27.6.1c0 9 1.7 15.5 5 19.5 3.3 3.9 7.9 5.9 13.7 5.9 5.9 0 10.5-1.9 13.8-5.8s4.9-10.8 4.9-20.8c0-8.4-1.7-14.6-5.1-18.4-3.4-3.9-8-5.8-13.8-5.8-5.1-.2-10 2-13.4 5.9-3.4 3.9-5.1 10.4-5.1 19.5zm93.4-.1c0-14.6 4.1-26 12.2-34.1 8.1-8.1 19.5-12.2 34-12.2 14.9 0 26.4 4 34.4 12S485 144 485 158.4c0 10.5-1.8 19-5.3 25.7-3.4 6.6-8.7 12-15.2 15.6-6.7 3.7-15 5.6-24.9 5.6-10.1 0-18.4-1.6-25-4.8-6.8-3.4-12.4-8.7-16.1-15.2-4.1-7-6.2-15.7-6.2-26.2zm27.6.1c0 9 1.7 15.5 5 19.5 3.3 3.9 7.9 5.9 13.7 5.9 5.9 0 10.5-1.9 13.8-5.8 3.3-3.9 4.9-10.8 4.9-20.8 0-8.4-1.7-14.6-5.1-18.4-3.4-3.9-8-5.8-13.8-5.8-5.1-.2-10.1 2-13.4 5.9-3.4 3.9-5.1 10.4-5.1 19.5z"/><path d="M482.1 114.4h27.6v67.4h43.1v22H482v-89.4z"/><ellipse transform="rotate(-37.001 420.46 67.88)" class="st0" cx="420.5" cy="67.9" rx="63" ry="51.8"/><defs><ellipse id="SVGID_1_" transform="rotate(-37.001 420.46 67.88)" cx="420.5" cy="67.9" rx="63" ry="51.8"/></defs><clipPath id="SVGID_2_"><use xlink:href="#SVGID_1_" overflow="visible"/></clipPath><g class="st1"><path transform="rotate(-37.001 420.82 68.353)" class="st0" d="M330.9-14.2h179.8v165.1H330.9z"/><g id="Layer_2_1_"><defs><path id="SVGID_3_" transform="rotate(-37.001 420.82 68.353)" d="M330.9-14.2h179.8v165.1H330.9z"/></defs><clipPath id="SVGID_4_"><use xlink:href="#SVGID_3_" overflow="visible"/></clipPath><g id="Layer_1-2" class="st2"><ellipse transform="rotate(-37.001 420.46 67.88)" class="st0" cx="420.5" cy="67.9" rx="63" ry="51.8"/><defs><ellipse id="SVGID_5_" transform="rotate(-37.001 420.46 67.88)" cx="420.5" cy="67.9" rx="63" ry="51.8"/></defs><clipPath id="SVGID_6_"><use xlink:href="#SVGID_5_" overflow="visible"/></clipPath><g class="st3"><path transform="rotate(-37 420.799 68.802)" class="st0" d="M357.8 17h125.9v103.7H357.8z"/><defs><path id="SVGID_7_" transform="rotate(-37 420.799 68.802)" d="M357.8 17h125.9v103.7H357.8z"/></defs><clipPath id="SVGID_8_"><use xlink:href="#SVGID_7_" overflow="visible"/></clipPath><g class="st4"><ellipse transform="rotate(-37.001 420.46 67.88)" class="st5" cx="420.5" cy="67.9" rx="63" ry="51.8"/></g><path transform="rotate(-37 420.799 68.802)" class="st6" d="M357.8 17h125.9v103.7H357.8z"/><ellipse transform="rotate(-37.001 420.46 67.88)" class="st7" cx="420.5" cy="67.9" rx="63" ry="51.8"/><path transform="rotate(-37 420.799 68.802)" class="st0" d="M357.8 17h125.9v103.7H357.8z"/><defs><path id="SVGID_9_" transform="rotate(-37 420.799 68.802)" d="M357.8 17h125.9v103.7H357.8z"/></defs><clipPath id="SVGID_10_"><use xlink:href="#SVGID_9_" overflow="visible"/></clipPath><g class="st8"><ellipse transform="rotate(-37.001 420.46 67.88)" class="st5" cx="420.5" cy="67.9" rx="63" ry="51.8"/></g><path transform="rotate(-37 420.799 68.802)" class="st9" d="M357.8 17h125.9v103.7H357.8z"/><path transform="rotate(-37.001 420.82 68.353)" class="st7" d="M330.9-14.2h179.8v165.1H330.9z"/></g><ellipse transform="rotate(-37.001 420.46 67.88)" class="st7" cx="420.5" cy="67.9" rx="63" ry="51.8"/><path d="M392.4 61.3l10-7 12.3 17.5c2.1 2.8 3.7 5.8 4.9 9.1.7 2.5.5 5.2-.5 7.6-1.3 3-3.4 5.5-6.2 7.3-3.3 2.3-6.1 3.6-8.5 4-2.3.4-4.7 0-6.9-1-2.4-1.2-4.5-2.9-6.1-5.1l8.6-8c.7 1.1 1.6 2.1 2.6 2.9.7.5 1.5.8 2.4.8.7 0 1.4-.3 1.9-.7 1-.6 1.7-1.8 1.6-3-.3-1.7-1-3.4-2.1-4.7l-14-19.7zm30 11.1l9.1-7.2c1 1.2 2.3 2.1 3.7 2.6 2 .6 4.1.2 5.8-1.1 1.2-.8 2.2-1.9 2.6-3.3.6-1.8-.4-3.8-2.2-4.4-.3-.1-.6-.2-.9-.2-1.2-.1-3.3.4-6.4 1.7-5.1 2.1-9.1 2.9-12.1 2.6-2.9-.3-5.6-1.8-7.2-4.3-1.2-1.7-1.8-3.7-1.9-5.7 0-2.3.6-4.6 1.9-6.5 1.9-2.7 4.2-5 7-6.8 4.2-2.9 7.9-4.3 11.1-4.3 3.2 0 6.2 1.5 9 4.6l-9 7.1c-1.8-2.3-5.2-2.8-7.5-1l-.3.3c-1 .6-1.7 1.5-2.1 2.6-.3.8-.1 1.7.4 2.4.4.5 1 .9 1.7.9.8.1 2.2-.3 4.2-1.2 5-2.1 8.8-3.3 11.4-3.7 2.2-.4 4.5-.2 6.6.7 1.9.8 3.5 2.2 4.6 3.9 1.4 2 2.2 4.4 2.3 6.9.1 2.6-.6 5.1-2 7.3-1.8 2.7-4.1 5-6.8 6.8-5.5 3.8-10 5.4-13.6 4.8-3.9-.6-7.1-2.6-9.4-5.5z"/></g></g></g></svg>
